!! 00000] TT[00
!! NN
!!!OTL: Jie er ge
!!!ARE: Asia, China, Shanxi Shangxian, SÅd)
!! Ethnic Group: Han
!! I, 77, 1)
!!!SCT: C0027
!!!YEM: Copyright 1995, estate of Helmut Schaffrath.
**kern
*ICvox
*Ivox
*M2/4
*k[b-]
*F:
{16dd
8dd
16dd
8ff
16dd
16cc
=1
16dd
16cc
16b-
16a
4g
=2
8.cc
16dd
8g
8a
=3
16a
16g
16f
16d
4d}
=4
{8.dd
16cc
8dd
8cc
=5
8dd
16cc
16a
4g
=6
8.cc
16dd
8g
8a
=7
16a
16g
16f
16d
4d}
=8
{8.dd
16dd
8ff
16dd
16cc
=9
16dd
16cc
16a
16g
16a
16g
8f}
=10
{8a
16a
16g
8f
16f
16g
=11
8a
16dd
16dd
8.g
16a
=12
8.cc
16dd
8g
8a
=13
16a
16g
16f
16d
4d}
=14
{8.dd
16cc
8dd
8cc
=15
8dd
16cc
16a
8.g
16f
=16
8.cc
16dd
8g
8a
=17
16a
16g
16f
16d
4d}
==
!!!AGN: Xiaodiao. Biaoda aiqing
!! Vereinzelt Verzierungen.
!!!ONB: ESAC (Essen Associative Code) Database: CHINA
!!!AMT: simple duple
!!!AIN: vox
!!!EED: Helmut Schaffrath
!!!EEV: 1.0
*-
